X: 2134
Q: "Strathspey."
M: C
L: 1/8
K: G
ug |\
vG>uDG<B vA>uGA<B | vG>GG>uB d3ug |\
uf |\
g>ab<g d>ed<B |
g>ab<g e2(e>f) |\
[1 g>ab<g d>ed<B | A<AB>d e3 :|\
[2 g<b f<a ve>ufg<e | d<BB>G [A3D3] |]


